X:92
M:3/4
L:1/8
Q:1/4=100
K:B Minor
(F2 B/)z/ c d>B|(c B>)z||c d>e|(f2 g/)z/ f e>d|c2 zf d>c|(B2 c/)z/ d c>B
|
(c B>)z||

